packs/brands/elementor.svg

<svg xmlns="http://www.w3.org/2000/svg" viewBox="0 0 512 512"><!--! Font Awesome Free 6.5.2 by @fontawesome - https://fontawesome.com License - https://fontawesome.com/license/free (Icons: CC BY 4.0, Fonts: SIL OFL 1.1, Code: MIT License) Copyright 2024 Fonticons, Inc.--><path d="M.361 256C.361 397 114 511 255 511c142 0 256-114 256-255C511 116 397 2.05 255 2.05 114 2.05.361 116 .361 256M192 150v213h-43V150zm42 0h128v43H234zm128 85v43H234v-43zm-128 85h128v43H234z"/></svg>

<svg xmlns="http://www.w3.org/2000/svg" viewBox="0 0 512 512"><!--! Font Awesome Free 6.5.2 by @fontawesome - https://fontawesome.com License - https://fontawesome.com/license/free (Icons: CC BY 4.0, Fonts: SIL OFL 1.1, Code: MIT License) Copyright 2024 Fonticons, Inc. --><path d="M.361 256C.361 397 114 511 255 511C397 511 511 397 511 256C511 116 397 2.05 255 2.05C114 2.05 .361 116 .361 256zM192 150V363H149V150H192zM234 150H362V193H234V150zM362 235V278H234V235H362zM234 320H362V363H234V320z"/></svg>
